X: 23649
T: Limerick Redowa, The
R: mazurka
M: 3/4
K: Gmajor
Bd|g2 f2 GB|e2 d2 Bd|c2 B2 (3ABd|e2 d2 Bd|
g2 f2 GB|e2 d2 Bd|c2 B2 A2|G4||
Bd|c2 B2 (3ABc|e2 d2 Bd|c2 B2 (3Abd|e2 d2 Bd|
g2 f2 GB|e2 d2 Bd|c2 B2 A2|G4||
(3ddd|d2 b2 a2|g2 B2 d2|c2 A2 f2|g2 b2 (3ddd|
d2 b2 a2|g2 B2 d2|c2 A2 f2|g4||

